X:1
T:French Suite II Sarabande
T:BWV 813
T:J. S. Bach
%%score { 1 | ( 2 3 ) }
L:1/8
Q:1/4=96
M:3/4
K:Eb
V:1 treble nm="Harp"
V:2 bass 
V:3 bass 
V:1
"^Andante" ef/e/ d/e/c{c} g2- | g/c'/^g/=e/{e} f4- | f/a/g/d/ e/g/f/c/ d/f/e/=B/ | %3
 c/e/d/=A/ =B3/2c/4d/4 c/B/A/G/ | ef/e/ d/e/c b2- | b/g/=e/c/{c} a>c _d2- | %6
 d/B/c/f/ =d/g/f/a/ g/c'/4b/4a/g/ | %7
 f/4e/4f/4e/4f/4e/4f/4e/4 f/4e/4f/4e/4f/4e/4f/4e/4 f/4e/4f/4e/4f/4e/4f/4e/4 | ef/e/ d/e/c{c} g2- | %9
 g/c'/^g/=e/{e} f4- | f/a/g/d/ e/g/f/c/ d/f/e/=B/ | c/e/d/=A/ =B3/2c/4d/4 c/B/A/G/ | %12
 ef/e/ d/e/c b2- | b/g/=e/c/{c} a>c _d2- | d/B/c/f/ =d/g/f/a/ g/c'/4b/4a/g/ | %15
 f/4e/4f/4e/4f/4e/4f/4e/4 f/4e/4f/4e/4f/4e/4f/4e/4 f/4e/4f/4e/4f/4e/4f/4e/4 | Bc/B/ A/B/G e2- | %17
 e/d/e/g/ f/e/d/c/ B/=A/G/F/ | e/c/d/b/ d/B/c/=a/ c/=A/B/g/ | B/G/=A/g/ ^f-f/g/4=a/4 g/f/=e/d/ | %20
 ef/e/ d/e/c d2- | d/g/^d/=B/ c4- | c/e/d/=A/ B/d/c/G/ A/c/^A/^F/ | G/^F/=A/G/ G/4F/4G3/2- G2 | %24
 ef/e/ d/e/c a2- | a/f/_d/c/ d/f/a/g/ g2- | g/=e/f/a/ B/c/_d- d/c/B/g/ | B/A/G/A/ B/G/A/F/ d2- | %28
 d/c/=B/c/ d/B/c/A/ f2- | f/e/d/e/ f/d/e/c/ a2- | a/g/^f/g/ c'/=b/4=a/4g/=f/ f/4e/4f/4e/4d/c/ | %31
 c/4=B/4c3/2- c4 | Bc/B/ A/B/G e2- | e/d/e/g/ f/e/d/c/ B/=A/G/F/ | e/c/d/b/ d/B/c/=a/ c/=A/B/g/ | %35
 B/G/=A/g/ ^f-f/g/4=a/4 g/f/=e/d/ | ef/e/ d/e/c d2- | d/g/^d/=B/ c4- | %38
 c/e/d/=A/ B/d/c/G/ A/c/^A/^F/ | G/^F/=A/G/ G/4F/4G3/2- G2 | ef/e/ d/e/c a2- | %41
 a/f/_d/c/ d/f/a/g/ g2- | g/=e/f/a/ B/c/_d- d/c/B/g/ | B/A/G/A/ B/G/A/F/ d2- | %44
 d/c/=B/c/ d/B/c/A/ f2- | f/e/d/e/ f/d/e/c/ a2- | a/g/^f/g/ c'/=b/4=a/4g/=f/ f/4e/4f/4e/4d/c/ | %47
 c/4=B/4!fermata!c3/2- c4 |] %48
V:2
 z2 E2 D2 | C3 =B, CD | =B,2 C2 A,2 | =A,2 G,4- | G,G, F,E, F,G, | F,3 G, A,B,- | B,A,- A,D, E,F, | %7
 G,A,/B,/ A,/G,/A,/F,/ G,2 | z2 E2 D2 | C3 =B, CD | =B,2 C2 A,2 | =A,2 G,4- | G,G, F,E, F,G, | %13
 F,3 G, A,B,- | B,A,- A,D, E,F, | G,A,/B,/ A,/G,/A,/F,/ G,2 | G,A, B,4- | B,G, =A,4- | %18
 A,D, =E,^F, G,2- | G,2 =A,B, C2- | C2 B,2 =A,2 | G,3 ^F, G,=A, | D,G,- G,^F,/=E,/ F,C- | C2 =B,4 | %24
 C z z2 z2 | z B, A,G, F,=E, | z C, D,=E, F,E, | F,2 C4- | CF, A,4- | A,F, G,3 F, | G,=B, C3 B, | %31
 C6 | G,A, B,4- | B,G, =A,4- | A,D, =E,^F, G,2- | G,2 =A,B, C2- | C2 B,2 =A,2 | G,3 ^F, G,=A, | %38
 D,G,- G,^F,/=E,/ F,C- | C2 =B,4 | C z z2 z2 | z B, A,G, F,=E, | z C, D,=E, F,E, | F,2 C4- | %44
 CF, A,4- | A,F, G,3 F, | G,=B, C3 B, | !fermata!C6 |] %48
V:3
 C4 B,2 | A,3 A, G,F, | G,2 CA, F,2 | ^F,2 z G,, =A,,=B,, | C,2 z C, D,=E, | F,F,, F,2- F,G, | %6
 A,F, B,,4 | E,6 | C4 B,2 | A,3 A, G,F, | G,2 CA, F,2 | ^F,2 z G,, =A,,=B,, | C,2 z C, D,=E, | %13
 F,F,, F,2- F,G, | A,F, B,,4 | E,6 | E,3 E, F,G, | C,2 z D, E,F, | B,,2 =A,,2 G,G,, | %19
 C,E, D,3 ^F, | G,4 F,2 | E,3 E, D,C, | B,,G,, D,4 | G,3 F, E,D, | C,G, F,E, D,C, | B,,6 | %26
 A,,4 G,,2 | F,,2 z F, G,A, | D,2 z D, E,F, | =B,,2 z B,, C,D, | E,D, E,F, G,2 | z G, E,G, C,2 | %32
 E,3 E, F,G, | C,2 z D, E,F, | B,,2 =A,,2 G,G,, | C,E, D,3 ^F, | G,4 F,2 | E,3 E, D,C, | %38
 B,,G,, D,4 | G,3 F, E,D, | C,G, F,E, D,C, | B,,6 | A,,4 G,,2 | F,,2 z F, G,A, | D,2 z D, E,F, | %45
 =B,,2 z B,, C,D, | E,D, E,F, G,2 | z G, E,G, !fermata!C,2 |] %48

